X:103
T:Langstrom's Pony
R:jig
Z:Transcribed by Dave Marshall
M:6/8
K:Amix
|:fed cAA|EAA cAA|fed cAA|~B3 dcB|
fed cAA|EAA cAA|faf gfe|dBG Bcd:|
|:cee dff|cee ecA|cee def|dBG Bcd|
cee dff|cee efg|faf gfe|dBG Bcd:|
|:Ace ~a3|ecA ecA|GBd ~g3|dBG Bcd|
faf gfe|~f3 ecA|~a3 gfe|dBG Bcd:|
|:AEA A2d|cAc edc|AEA AB=c|BGB dcB|
AEA A2d|cAc efg|faf gfe dBG Bcd:|
